images/hak.svg

<svg height="250" viewBox="0 0 250 250" width="250" xmlns="http://www.w3.org/2000/svg"><path d="m102.074219 45.835938v-33.472657l21.726562-12.363281 103.515625 58.894531-65.078125 37.027344v-23.964844c5.277344-2.011719 9.027344-7.101562 9.027344-13.0625 0-7.71875-6.285156-13.976562-14.039063-13.976562-7.753906 0-14.039062 6.257812-14.039062 13.976562 0 5.960938 3.746094 11.050781 9.023438 13.0625v29.667969l-28.410157 16.164062-103.515625-58.894531 71.761719-40.828125v27.769532c-5.277344 2.007812-9.027344 7.097656-9.027344 13.058593 0 7.71875 6.285157 13.976563 14.039063 13.976563s14.039062-6.257813 14.039062-13.976563c0-5.960937-3.746094-11.050781-9.023437-13.058593zm132.925781 117.488281v19.042969c0 4.535156-2.425781 8.726562-6.359375 10.988281l-97.324219 55.945312c-.460937.265625-.9375.5-1.421875.703125v-77.402344l20.257813 11.640626c-.183594.898437-.28125 1.828124-.28125 2.785156 0 7.71875 6.285156 13.976562 14.039062 13.976562s14.039063-6.257812 14.039063-13.976562c0-7.722656-6.285157-13.980469-14.039063-13.980469-3.140625 0-6.039062 1.027344-8.378906 2.761719l-25.636719-14.730469v-31.4375c.179688-.09375.359375-.191406.539063-.292969l103.515625-58.894531c.351562-.199219.695312-.417969 1.027343-.648437.015626.253906.023438.507812.023438.761718v81.230469l-20.730469-11.910156c.027344-.367188.042969-.742188.042969-1.117188 0-7.71875-6.285156-13.980469-14.039062-13.980469-7.75 0-14.039063 6.261719-14.039063 13.980469s6.289063 13.976563 14.039063 13.976563c3.742187 0 7.140624-1.457032 9.65625-3.828125zm-220 .050781 23.4375-13.46875c2.359375 1.78125 5.296875 2.839844 8.484375 2.839844 7.753906 0 14.039063-6.257813 14.039063-13.976563s-6.285157-13.980469-14.039063-13.980469-14.039063 6.261719-14.039063 13.980469c0 .910157.085938 1.800781.253907 2.660157l-18.136719 10.421874v-80.632812l102.167969 58.128906c.175781.101563.355469.199219.539062.292969v31.4375l-25.640625 14.730469c-2.335937-1.734375-5.238281-2.761719-8.378906-2.761719-7.75 0-14.035156 6.257813-14.035156 13.980469 0 7.71875 6.285156 13.976562 14.035156 13.976562 7.753906 0 14.039062-6.257812 14.039062-13.976562 0-.957032-.09375-1.886719-.277343-2.785156l20.257812-11.640626v76.136719l-96.347656-55.382812c-3.933594-2.261719-6.359375-6.453125-6.359375-10.988281zm68.6875 29.640625c-3.320312 0-6.015625-2.679687-6.015625-5.988281s2.695313-5.992188 6.015625-5.992188c3.324219 0 6.019531 2.683594 6.019531 5.992188s-2.695312 5.988281-6.019531 5.988281zm-36.765625-48.257813c-3.324219 0-6.015625-2.679687-6.015625-5.988281 0-3.308593 2.691406-5.992187 6.015625-5.992187s6.015625 2.683594 6.015625 5.992187c0 3.308594-2.691406 5.988281-6.015625 5.988281zm116.988281 48.257813c-3.324218 0-6.015625-2.679687-6.015625-5.988281s2.691407-5.992188 6.015625-5.992188c3.324219 0 6.015625 2.683594 6.015625 5.992188s-2.691406 5.988281-6.015625 5.988281zm36.363282-48.257813c-3.320313 0-6.015626-2.679687-6.015626-5.988281 0-3.308593 2.695313-5.992187 6.015626-5.992187 3.324218 0 6.019531 2.683594 6.019531 5.992187 0 3.308594-2.695313 5.988281-6.019531 5.988281zm-43.046876-79.871093c-3.324218 0-6.015624-2.683594-6.015624-5.992188 0-3.308593 2.691406-5.988281 6.015624-5.988281 3.320313 0 6.015626 2.679688 6.015626 5.988281 0 3.308594-2.695313 5.992188-6.015626 5.992188zm-60.167968 0c-3.320313 0-6.015625-2.683594-6.015625-5.992188 0-3.308593 2.695312-5.988281 6.015625-5.988281 3.324218 0 6.019531 2.679688 6.019531 5.988281 0 3.308594-2.695313 5.992188-6.019531 5.992188zm0 0" fill="#b733a7" fill-rule="evenodd"/></svg>

<?xml version="1.0" encoding="UTF-8"?>
<svg xmlns="http://www.w3.org/2000/svg" xmlns:xlink="http://www.w3.org/1999/xlink" width="250px" height="250px" viewBox="0 0 250 250" version="1.1">
<g id="surface1">
<path style=" stroke:none;fill-rule:evenodd;fill:rgb(71.764708%,20%,65.490198%);fill-opacity:1;" d="M 102.074219 45.835938 L 102.074219 12.363281 L 123.800781 0 L 227.316406 58.894531 L 162.238281 95.921875 L 162.238281 71.957031 C 167.515625 69.945312 171.265625 64.855469 171.265625 58.894531 C 171.265625 51.175781 164.980469 44.917969 157.226562 44.917969 C 149.472656 44.917969 143.1875 51.175781 143.1875 58.894531 C 143.1875 64.855469 146.933594 69.945312 152.210938 71.957031 L 152.210938 101.625 L 123.800781 117.789062 L 20.285156 58.894531 L 92.046875 18.066406 L 92.046875 45.835938 C 86.769531 47.84375 83.019531 52.933594 83.019531 58.894531 C 83.019531 66.613281 89.304688 72.871094 97.058594 72.871094 C 104.8125 72.871094 111.097656 66.613281 111.097656 58.894531 C 111.097656 52.933594 107.351562 47.84375 102.074219 45.835938 Z M 235 163.324219 L 235 182.367188 C 235 186.902344 232.574219 191.09375 228.640625 193.355469 L 131.316406 249.300781 C 130.855469 249.566406 130.378906 249.800781 129.894531 250.003906 L 129.894531 172.601562 L 150.152344 184.242188 C 149.96875 185.140625 149.871094 186.070312 149.871094 187.027344 C 149.871094 194.746094 156.15625 201.003906 163.910156 201.003906 C 171.664062 201.003906 177.949219 194.746094 177.949219 187.027344 C 177.949219 179.304688 171.664062 173.046875 163.910156 173.046875 C 160.769531 173.046875 157.871094 174.074219 155.53125 175.808594 L 129.894531 161.078125 L 129.894531 129.640625 C 130.074219 129.546875 130.253906 129.449219 130.433594 129.347656 L 233.949219 70.453125 C 234.300781 70.253906 234.644531 70.035156 234.976562 69.804688 C 234.992188 70.058594 235 70.3125 235 70.566406 L 235 151.796875 L 214.269531 139.886719 C 214.296875 139.519531 214.3125 139.144531 214.3125 138.769531 C 214.3125 131.050781 208.027344 124.789062 200.273438 124.789062 C 192.523438 124.789062 186.234375 131.050781 186.234375 138.769531 C 186.234375 146.488281 192.523438 152.746094 200.273438 152.746094 C 204.015625 152.746094 207.414062 151.289062 209.929688 148.917969 Z M 15 163.375 L 38.4375 149.90625 C 40.796875 151.6875 43.734375 152.746094 46.921875 152.746094 C 54.675781 152.746094 60.960938 146.488281 60.960938 138.769531 C 60.960938 131.050781 54.675781 124.789062 46.921875 124.789062 C 39.167969 124.789062 32.882812 131.050781 32.882812 138.769531 C 32.882812 139.679688 32.96875 140.570312 33.136719 141.429688 L 15 151.851562 L 15 71.21875 L 117.167969 129.347656 C 117.34375 129.449219 117.523438 129.546875 117.707031 129.640625 L 117.707031 161.078125 L 92.066406 175.808594 C 89.730469 174.074219 86.828125 173.046875 83.6875 173.046875 C 75.9375 173.046875 69.652344 179.304688 69.652344 187.027344 C 69.652344 194.746094 75.9375 201.003906 83.6875 201.003906 C 91.441406 201.003906 97.726562 194.746094 97.726562 187.027344 C 97.726562 186.070312 97.632812 185.140625 97.449219 184.242188 L 117.707031 172.601562 L 117.707031 248.738281 L 21.359375 193.355469 C 17.425781 191.09375 15 186.902344 15 182.367188 Z M 83.6875 193.015625 C 80.367188 193.015625 77.671875 190.335938 77.671875 187.027344 C 77.671875 183.71875 80.367188 181.035156 83.6875 181.035156 C 87.011719 181.035156 89.707031 183.71875 89.707031 187.027344 C 89.707031 190.335938 87.011719 193.015625 83.6875 193.015625 Z M 46.921875 144.757812 C 43.597656 144.757812 40.90625 142.078125 40.90625 138.769531 C 40.90625 135.460938 43.597656 132.777344 46.921875 132.777344 C 50.246094 132.777344 52.9375 135.460938 52.9375 138.769531 C 52.9375 142.078125 50.246094 144.757812 46.921875 144.757812 Z M 163.910156 193.015625 C 160.585938 193.015625 157.894531 190.335938 157.894531 187.027344 C 157.894531 183.71875 160.585938 181.035156 163.910156 181.035156 C 167.234375 181.035156 169.925781 183.71875 169.925781 187.027344 C 169.925781 190.335938 167.234375 193.015625 163.910156 193.015625 Z M 200.273438 144.757812 C 196.953125 144.757812 194.257812 142.078125 194.257812 138.769531 C 194.257812 135.460938 196.953125 132.777344 200.273438 132.777344 C 203.597656 132.777344 206.292969 135.460938 206.292969 138.769531 C 206.292969 142.078125 203.597656 144.757812 200.273438 144.757812 Z M 157.226562 64.886719 C 153.902344 64.886719 151.210938 62.203125 151.210938 58.894531 C 151.210938 55.585938 153.902344 52.90625 157.226562 52.90625 C 160.546875 52.90625 163.242188 55.585938 163.242188 58.894531 C 163.242188 62.203125 160.546875 64.886719 157.226562 64.886719 Z M 97.058594 64.886719 C 93.738281 64.886719 91.042969 62.203125 91.042969 58.894531 C 91.042969 55.585938 93.738281 52.90625 97.058594 52.90625 C 100.382812 52.90625 103.078125 55.585938 103.078125 58.894531 C 103.078125 62.203125 100.382812 64.886719 97.058594 64.886719 Z M 97.058594 64.886719 "/>
</g>
</svg>
